static/images/compare-blue-vector.svg

<svg width="210" height="430" viewBox="0 0 210 430" fill="none" xmlns="http://www.w3.org/2000/svg">
<path d="M188.082 273.407C193.926 271.718 193.926 271.718 202.485 259.981C196.343 263.279 189.28 265.831 188.082 273.407Z" fill="#82C6DD"/>
<path d="M134.549 119.876C133.413 118.949 130.425 119.091 129.038 121.186C127.943 122.84 125.056 123.117 124.589 125.37C121.947 127.875 118.844 130.031 117.045 133.176C116.651 133.269 116.449 133.496 116.44 133.86C110.025 139.319 103.24 144.468 98.0336 150.939C97.3652 152.408 94.7311 152.889 95.5258 155.092C95.1866 155.831 92.7186 154.83 93.8059 156.733C85.5688 162.187 80.3035 169.947 73.9167 176.837C70.1707 179.029 67.0829 181.682 66.0331 185.767C62.4265 187.44 59.9246 189.88 59.237 193.576C58.2502 193.814 56.9634 193.335 56.316 194.386C54.4153 197.386 50.3031 198.858 49.2846 202.471C47.6932 204.285 43.8057 204.817 45.2865 208.345C44.4207 209.375 41.3428 210.048 43.0096 211.376C45.0531 213.004 45.4888 210.132 46.6048 209.188C49.6425 208.134 49.4991 205.407 50.3965 203.226C51.6494 201.701 55.903 203.437 55.2645 199.856C60.3338 197.732 62.9544 193.624 65.807 189.705C66.5618 188.843 67.3174 187.98 68.0731 187.118C70.9795 185.398 72.6876 182.785 74.5411 180.28C79.6862 180.599 79.5682 176.106 81.8522 173.896C87.7981 168.14 95.0668 163.424 99.579 156.53C103.539 156.412 101.176 153.682 101.691 152.14C103.381 152.257 104.626 151.782 105.091 150.268C107.806 149.367 109.934 148.03 109.932 145.114C110.962 142.945 115.219 143.096 114.746 139.845C117.049 139.497 118.01 138.272 117.702 136.217C118.609 135.478 119.516 134.739 120.423 134.001C123.79 134.279 123.474 131.308 125.016 129.977C125.618 129.463 126.222 128.949 126.824 128.435C129.82 127.775 130.837 125.291 132.571 123.507C133.587 122.465 136.821 121.73 134.549 119.876Z" fill="#82C6DD"/>
<path d="M121.89 102.294C121.44 100.74 122.542 98.5089 120.379 97.7732C117.741 96.8772 118.06 99.5668 117.087 100.696C115.956 102.007 114.813 103.308 113.673 104.613C111.94 106.306 110.207 107.998 108.476 109.691C108.307 110.413 108.138 111.136 107.969 111.859C102.808 114.715 100.559 119.886 96.1744 123.358C92.2326 123.307 95.0989 127.617 92.2421 128.259C87.4004 131.514 82.9124 134.998 82.0094 140.813C82.0126 140.813 82.0159 140.814 82.0191 140.815C82.0337 140.822 82.1208 140.889 82.1208 140.889C76.8125 140.723 76.7028 145.933 73.0389 147.47C71.4234 150 66.302 150.262 67.2627 154.42C70.4515 154.079 72.0487 150.656 75.9271 151.608C76.7285 151.805 77.8265 151.182 77.2474 150.305C76.8162 149.653 75.6342 149.353 74.786 148.896C76.5362 146.611 81.5158 147.625 81.7431 143.785C83.7024 143.975 84.2295 142.654 84.9388 141.524C85.3604 139.209 91.0759 139.827 88.714 135.969C90.81 135.661 92.9131 135.359 92.7991 132.863C93.3264 132.293 93.8525 131.722 94.3797 131.152C96.6749 129.924 96.9528 126.382 100.849 126.987C100.753 126.301 100.657 125.615 100.56 124.928C101.802 124.725 103.518 125.089 103.346 123.206C105.412 120.353 109.223 118.494 109.406 114.568C109.697 114.283 109.988 113.997 110.278 113.711C111.585 112.248 112.894 110.786 114.202 109.324C116.358 108.508 117.015 106.552 118.326 105.093C120.52 105.143 122.805 105.454 121.89 102.294Z" fill="#82C6DD"/>
<path d="M220.481 113.04C221.619 112.523 222.831 111.772 222.055 110.57C221.113 109.115 219.696 110.312 218.794 110.643C216.966 111.313 218.942 111.876 219.268 112.496C218.801 113.095 218.334 113.692 217.867 114.292C217.002 113.6 216.223 112.277 214.962 112.876C213.839 113.409 215.337 114.4 215.29 115.213C214.645 117.955 209.683 116.72 209.534 119.919C208.652 122.93 204.772 124.343 204.47 127.664C201.828 129.158 199.185 130.655 196.543 132.149C195.692 133.885 194.841 135.621 193.578 138.195C196.204 137.075 197.374 136.095 197.954 134.583C201.052 133.008 203.978 131.296 204.881 127.958C206.766 126.566 209.14 125.589 210.01 123.338C214.952 121.045 217.693 117.025 220.481 113.04Z" fill="#82C6DD"/>
<path d="M136.888 196.428C138.251 195.825 138.901 194.815 139.003 193.49C140.116 192.317 142.645 191.809 141.527 189.584C141.097 188.728 139.996 189.046 139.147 189.214C136.419 189.754 137.763 191.5 137.946 192.903C136.286 193.602 131.02 190.028 133.455 195.582C129.271 196.487 131.038 201.479 127.188 202.615C125.142 204.089 123.066 205.552 124.596 208.791C125.522 206.194 128.338 205.244 129.906 203.263C131.815 200.659 135.905 199.746 136.888 196.428Z" fill="#82C6DD"/>
<path d="M120.685 210.734C116.904 208.877 116.169 213.983 113.707 215.762C112.086 216.875 110.986 218.177 111.581 220.474C114.142 220.2 114.984 218.72 115.921 217.337C117.5 214.933 122.562 211.655 120.685 210.734Z" fill="#82C6DD"/>
<path d="M208.36 369.807C213.248 368.583 213.764 364.775 215.505 361.904C212.471 363.886 209.32 365.799 208.36 369.807Z" fill="#82C6DD"/>
<path d="M43.006 212.108C38.138 213.335 37.6011 217.233 34.5283 218.744C33.1466 220.232 30.9977 221.461 32.7217 224.246C34.4283 223.075 36.0424 222.041 35.8922 219.868C38.9952 218.179 41.6194 216.163 43.006 212.108Z" fill="#82C6DD"/>
<path d="M1.6332 224.379C4.58221 221.731 5.09356 220.816 5.29605 218.657C3.75862 220.609 1.69029 221.945 1.6332 224.379Z" fill="#82C6DD"/>
<path d="M61.6647 160.904C61.5471 160.595 59.3654 160.359 58.7568 161.327C58.1076 162.362 57.427 163.675 58.4714 164.78C58.7978 165.124 60.5082 164.581 61.7928 164.417C61.8027 163.104 62.0606 161.939 61.6647 160.904Z" fill="#82C6DD"/>
<path d="M103.858 223.626C103.521 225.62 104.365 226.813 105.778 227.628C105.954 227.73 107.845 226.452 107.768 225.825C107.565 224.155 105.459 224.301 103.858 223.626Z" fill="#82C6DD"/>
<path d="M39.8341 178.833C40.1266 182.476 36.3788 182.666 37.4742 185.809C39.4079 184.136 41.8061 183.292 39.8341 178.833Z" fill="#82C6DD"/>
<path d="M145.098 185.157C149.089 186.001 149.874 183.941 151.247 182.635C150.545 182.041 149.844 181.449 149.142 180.857C147.892 182.186 146.642 183.515 145.098 185.157Z" fill="#82C6DD"/>
<path d="M160.852 169.493C160.858 169.478 160.864 169.463 160.871 169.449C160.871 169.445 160.87 169.443 160.872 169.439C160.812 169.452 160.758 169.47 160.696 169.482C160.748 169.484 160.799 169.489 160.852 169.493Z" fill="#82C6DD"/>
<path d="M157.215 173.955C153.03 172.877 155.844 176.754 154.061 177.377C152.337 178.559 150.613 179.741 148.89 180.922C149.571 181.504 150.25 182.086 150.932 182.668C153.347 180.392 156.867 178.973 158.055 175.741C159.572 174.294 161.237 172.945 162.564 171.373C163.815 169.891 162.484 169.62 161.105 169.537C160.317 171.355 159.648 173.252 157.215 173.955Z" fill="#82C6DD"/>
<path d="M51.3876 170.587C50.4317 169.696 49.3659 169.673 48.4383 170.504C47.8601 171.21 47.8529 172.057 48.8245 172.477C49.889 172.938 51.1964 172.956 51.864 172.025C52.0719 171.735 51.7594 170.933 51.3876 170.587Z" fill="#82C6DD"/>
<path d="M183.514 148.229C179.146 147.293 180.549 151.089 178.979 152.447C173.44 152.282 175.012 158.081 171.29 159.438C168.625 159.678 168.959 161.974 167.902 163.317C164.316 164.362 160.82 165.488 160.667 169.547C164.82 168.56 168.085 166.567 170.243 163.316C174.534 161.1 176.753 157.274 179.658 153.981C181.352 152.367 183.046 150.754 184.74 149.141C186.151 147.601 187.563 146.06 188.974 144.519C186.291 144.989 184.176 145.909 183.514 148.229Z" fill="#82C6DD"/>
<path d="M102.685 229.557C100.809 229.186 99.4349 229.311 98.9364 230.874C96.9662 231.802 93.4816 232.556 95.37 234.955C96.6767 236.613 98.5719 234.142 100.064 233.276C102.693 232.955 101.051 230.461 102.685 229.557Z" fill="#82C6DD"/>
<path d="M90.0023 240.118C85.691 239.988 85.5123 243.68 83.3376 245.527C81.2618 247.675 77.9402 249.255 79.0874 253.942C81.3413 251.483 82.9859 249.688 84.6305 247.894C86.5019 245.858 88.3724 243.823 90.2449 241.788C91.6558 240.145 93.9994 239.048 94.3576 236.568C91.2704 236.539 91.3964 238.988 90.0023 240.118Z" fill="#82C6DD"/>
<path d="M209.373 249.608C208.826 250.084 208.165 250.819 209.255 251.464C209.662 251.705 210.418 251.494 210.853 251.491C211.51 250.691 211.892 249.973 210.955 249.373C210.642 249.173 209.69 249.332 209.373 249.608Z" fill="#82C6DD"/>
<path d="M21.8964 201.627C21.2812 200.824 20.0377 200.838 19.5423 201.382C19.0808 201.89 19.2828 202.843 19.1927 203.601C19.9908 203.546 20.791 203.49 21.7243 203.426C23.0678 203.109 22.3243 202.183 21.8964 201.627Z" fill="#82C6DD"/>
<path d="M170.976 293.505C170.307 292.905 169.287 292.596 168.84 293.537C168.672 293.89 169.227 294.529 169.531 295.219C170.246 295.127 171.12 295.217 171.315 294.936C171.535 294.62 171.334 293.827 170.976 293.505Z" fill="#82C6DD"/>
<path d="M205.244 53.3556C204.162 52.265 202.003 52.3179 201.235 54.2541C198.327 55.4083 196.221 57.3059 194.602 59.6569C192.256 60.7592 189.655 61.6059 188.679 64.0806C188.289 64.1606 188.007 64.3551 187.831 64.666C184.943 65.166 183.708 66.8584 183.545 69.3216C183.177 69.5591 183.081 69.8757 183.256 70.2671C182.039 70.8563 180.82 71.4447 179.603 72.0339C176.641 73.8618 173.951 75.8921 172.851 79.1053C172.009 80.0017 169.332 78.366 169.597 80.7914C167.914 83.4049 163.422 84.0763 163.411 87.8445C160.604 90.1619 156.44 91.3444 155.425 95.1611C152.778 96.0328 150.976 97.5728 150.394 100.077C148.757 100.802 146.7 101.092 146.246 103.047C145.953 103.262 145.768 103.536 145.686 103.869C144.481 104.649 143.551 105.562 143.837 107.06C140.624 108.642 137.703 110.44 137.248 114.051C135.75 115.341 133.393 116.108 133.373 118.85C136.669 118.717 139.322 118.559 140.05 115.567C141.831 113.093 146.114 112.363 146.152 108.675C147.29 108.05 148.427 107.426 149.566 106.802C150.072 106.205 150.579 105.607 151.087 105.011C151.894 103.657 154.33 103.502 154.34 101.561C155.643 100.507 156.654 99.3193 156.599 97.6446C163.436 98.6542 163.002 92.3242 166.684 90.1502C167.423 89.2441 168.162 88.3389 168.902 87.4318C170.592 86.9262 170.648 85.8314 170.096 84.5184C174.709 85.45 174.324 81.4946 176.245 79.7934C179.016 80.2506 178.947 77.7969 180.323 76.824C182.004 75.6232 183.686 74.4232 185.368 73.2232C186.327 72.0307 187.288 70.8391 188.249 69.6474C189.119 68.7666 189.989 67.8857 190.859 67.0049C191.395 66.331 193.803 67.4865 192.917 65.4236C194.545 64.7658 196.119 64.0696 195.911 62.1107C199.648 61.1038 201.032 58.0009 203.37 55.7468C203.784 54.7566 206.839 54.9644 205.244 53.3556Z" fill="#82C6DD"/>
<path d="M23.9439 198.314C24.9716 198.921 25.3447 198.041 26.0426 197.467C26.0544 197.146 26.0719 196.691 26.0881 196.236C25.3322 196.452 24.4592 196.549 23.8678 196.937C23.5959 197.117 23.6619 198.147 23.9439 198.314Z" fill="#82C6DD"/>
<path d="M35.2779 186.124C34.3948 186.654 33.688 186.849 33.5003 187.25C33.3038 187.67 33.4005 188.404 33.7358 188.789C34.2029 189.326 35.0874 189.252 35.283 188.648C35.4958 187.997 35.3034 187.226 35.2779 186.124Z" fill="#82C6DD"/>
<path d="M206.592 153.565C209.718 153.275 210.298 151.204 210.665 148.983C210.799 148.668 210.889 148.341 210.934 148.003C212.992 146.476 215.381 145.09 214.547 142.143C214.444 141.78 213.358 141.19 213.084 141.304C210.268 142.47 209.319 144.566 209.827 147.292C208.594 147.888 206.525 147.926 207.527 150.016C206.233 150.435 203.837 149.602 204.359 152.078C204.178 152.404 203.996 152.73 203.815 153.056C201.641 156.457 196.625 157.3 194.614 160.847C193.872 161.757 193.132 162.668 192.39 163.579C191.752 164.096 191.113 164.612 190.475 165.13C187.551 167.071 185.655 169.597 185.054 172.86C183.191 174.841 179.636 175.568 179.022 179.28C183.589 178.524 184.216 174.249 187.821 173.371C187.438 170.669 191.599 171.332 191.862 169.107C194.642 168.213 197.046 167.03 196.994 163.947C197.431 163.32 197.869 162.692 198.305 162.064C200.235 160.102 202.164 158.14 204.092 156.179C204.927 155.309 205.759 154.437 206.592 153.565Z" fill="#82C6DD"/>
</svg>

<svg xmlns="http://www.w3.org/2000/svg" width="210" height="430" fill="none" viewBox="0 0 210 430"><path fill="#82c6dd" d="M188 273.4c6-1.7 6-1.7 14.5-13.4-6.2 3.3-13.2 5.8-14.4 13.4m-53.6-153.5c-1-1-4-.8-5.5 1.3-1 1.6-4 2-4.4 4.2-2.7 2.5-5.8 4.6-7.6 7.8q-.5 0-.6.7c-6.4 5.4-13.2 10.6-18.4 17-.6 1.5-3.3 2-2.5 4.2-.3.7-2.8-.3-1.7 1.6-8.2 5.5-13.5 13.2-19.9 20.1-3.7 2.2-6.8 4.9-7.9 9q-5.5 2.3-6.8 7.8c-1 .2-2.2-.3-2.9.8-1.9 3-6 4.5-7 8-1.6 1.9-5.5 2.4-4 6-.9 1-4 1.6-2.3 3 2 1.6 2.5-1.3 3.6-2.2 3-1 2.9-3.8 3.8-6 1.2-1.5 5.5.2 4.9-3.3 5-2.2 7.7-6.3 10.5-10.2l2.3-2.6c2.9-1.7 4.6-4.3 6.4-6.8 5.2.3 5-4.2 7.4-6.4 5.9-5.8 13.2-10.5 17.7-17.4 4 0 1.6-2.8 2-4.4q2.7.4 3.5-1.8c2.7-1 4.8-2.3 4.8-5.2 1-2.2 5.3-2 4.8-5.3q3.5-.5 3-3.6l2.7-2.2c3.4.3 3-2.7 4.6-4l1.8-1.6c3-.6 4-3.1 5.8-4.9 1-1 4.2-1.8 2-3.6m-12.7-17.6c-.5-1.6.6-3.8-1.5-4.5-2.7-1-2.3 1.8-3.3 2.9l-3.4 4-5.2 5-.5 2.2c-5.2 2.8-7.4 8-11.8 11.5-4 0-1.1 4.2-4 4.9-4.8 3.2-9.3 6.7-10.2 12.5h.1c-5.3 0-5.4 5.1-9 6.7-1.7 2.5-6.8 2.8-5.8 7 3.2-.4 4.7-3.8 8.6-2.9.8.2 2-.4 1.3-1.3-.4-.6-1.6-1-2.4-1.4 1.7-2.3 6.7-1.3 7-5.1 1.9.2 2.4-1.1 3.1-2.3.5-2.3 6.2-1.7 3.8-5.5 2.1-.3 4.2-.6 4.1-3.1l1.6-1.7c2.3-1.3 2.6-4.8 6.4-4.2l-.2-2c1.2-.3 3 0 2.7-1.8 2.1-2.8 6-4.7 6.1-8.6l.9-.9 3.9-4.4c2.2-.8 2.8-2.7 4.1-4.2 2.2 0 4.5.4 3.6-2.8m98.6 10.7c1.1-.5 2.3-1.2 1.6-2.4-1-1.5-2.4-.3-3.3 0-1.8.7.1 1.3.5 1.9l-1.4 1.8c-.9-.7-1.7-2-3-1.4-1 .5.4 1.5.4 2.3-.7 2.8-5.6 1.5-5.8 4.7-.8 3-4.7 4.4-5 7.8l-8 4.4-3 6c2.7-1 3.9-2 4.5-3.5 3-1.6 6-3.3 6.9-6.6 1.9-1.4 4.2-2.4 5.1-4.7 5-2.3 7.7-6.3 10.5-10.3m-83.6 83.4q2-.9 2.1-3c1.1-1 3.6-1.6 2.5-3.8-.4-.9-1.5-.6-2.4-.4-2.7.6-1.3 2.3-1.2 3.7-1.6.7-6.9-2.9-4.4 2.7-4.2.9-2.5 5.9-6.3 7-2 1.5-4.1 3-2.6 6.2 1-2.6 3.7-3.6 5.3-5.5 2-2.6 6-3.6 7-6.9m-16.2 14.3c-3.8-1.8-4.5 3.3-7 5-1.6 1.2-2.7 2.5-2.1 4.8 2.5-.3 3.4-1.8 4.3-3.2 1.6-2.4 6.7-5.6 4.8-6.6m87.7 159.1c4.8-1.2 5.4-5 7.1-7.9-3 2-6.2 3.9-7.1 8M43 212.1c-4.9 1.2-5.4 5.1-8.5 6.6-1.4 1.5-3.5 2.8-1.8 5.5 1.7-1.1 3.3-2.2 3.2-4.3 3.1-1.7 5.7-3.7 7.1-7.8M1.6 224.4c3-2.7 3.5-3.6 3.7-5.7-1.5 2-3.6 3.2-3.7 5.7m60.1-63.5c-.2-.3-2.3-.5-3 .4-.6 1-1.3 2.4-.2 3.5.3.3 2-.2 3.3-.4 0-1.3.3-2.5-.1-3.5m42.2 62.7q-.4 2.9 1.9 4c.2.1 2-1.1 2-1.8-.2-1.6-2.3-1.5-4-2.2m-64-44.8c.3 3.7-3.4 3.9-2.3 7 2-1.7 4.3-2.5 2.3-7m105.3 6.4c4 .8 4.8-1.3 6.1-2.6l-2-1.7zm15.8-15.7h-.2z"/><path fill="#82c6dd" d="M157.2 174c-4.2-1.1-1.4 2.8-3.1 3.4l-5.2 3.5 2 1.8c2.4-2.3 6-3.7 7.2-7q2.3-2 4.5-4.3c1.2-1.5-.1-1.8-1.5-1.9-.8 1.9-1.5 3.8-3.9 4.5m-105.8-3.4q-1.5-1.4-3-.1-.9 1.2.4 2c1 .4 2.4.5 3-.5q.3-.6-.4-1.4m132.1-22.4c-4.4-1-3 2.9-4.5 4.2-5.6-.1-4 5.7-7.7 7-2.7.3-2.3 2.6-3.4 4-3.6 1-7 2-7.2 6.1q6.3-1.5 9.5-6.2c4.3-2.2 6.6-6 9.5-9.3l5-4.9 4.3-4.6c-2.7.5-4.8 1.4-5.5 3.7m-80.8 81.4c-1.9-.4-3.3-.3-3.8 1.3-2 .9-5.4 1.7-3.5 4 1.3 1.7 3.2-.8 4.7-1.6 2.6-.3 1-2.8 2.6-3.7M90 240.1c-4.3-.1-4.5 3.6-6.7 5.4-2 2.2-5.4 3.8-4.2 8.4l5.5-6 5.6-6.1c1.5-1.7 3.8-2.8 4.2-5.2-3.1 0-3 2.4-4.4 3.5m119.4 9.5c-.6.5-1.2 1.2-.1 1.9q.7.2 1.6 0c.6-.8 1-1.5 0-2.1-.3-.2-1.2 0-1.5.2m-187.5-48c-.6-.8-1.9-.8-2.4-.2-.4.5-.2 1.4-.3 2.2l2.5-.2c1.4-.3.6-1.2.2-1.8M171 293.5c-.7-.6-1.7-.9-2.2 0-.1.4.4 1 .7 1.7.7 0 1.6 0 1.8-.3q.2-.6-.3-1.4m34.2-240.1c-1-1.1-3.2-1-4 .9q-4.3 1.7-6.6 5.4c-2.3 1-5 2-6 4.4q-.5 0-.8.6c-2.9.5-4 2.2-4.3 4.6q-.5.4-.2 1l-3.7 1.7c-3 1.9-5.6 3.9-6.7 7.1-.9.9-3.6-.7-3.3 1.7-1.7 2.6-6.2 3.3-6.2 7-2.8 2.4-7 3.5-8 7.4q-4 1.2-5 4.9c-1.6.7-3.7 1-4.2 3l-.5.8c-1.2.7-2.1 1.7-1.9 3.2-3.2 1.5-6.1 3.3-6.6 7-1.4 1.2-3.8 2-3.8 4.8 3.3-.2 6-.3 6.7-3.3 1.7-2.5 6-3.2 6-7q1.8-.8 3.5-1.8l1.5-1.8c.8-1.3 3.2-1.5 3.2-3.4 1.3-1 2.4-2.3 2.3-4 6.8 1 6.4-5.3 10-7.4l2.3-2.8c1.7-.5 1.7-1.6 1.2-2.9 4.6 1 4.2-3 6.1-4.7 2.8.5 2.7-2 4.1-3l5-3.6 3-3.6 2.6-2.6c.5-.7 2.9.5 2-1.6 1.6-.6 3.2-1.3 3-3.3 3.7-1 5.1-4.1 7.5-6.4.4-1 3.4-.7 1.8-2.3M24 198.3c1 .6 1.3-.3 2-.8v-1.3l-2.1.7c-.3.2-.2 1.2 0 1.4m11.4-12.2c-1 .6-1.6.7-1.8 1.2q-.3.8.2 1.5c.5.5 1.4.5 1.6-.2q.2-.9 0-2.5m171.3-32.5c3.1-.3 3.7-2.4 4-4.6q.3-.5.3-1c2-1.5 4.5-3 3.6-5.9 0-.3-1.1-1-1.4-.8q-4.1 1.9-3.3 6c-1.2.6-3.3.6-2.3 2.7-1.3.4-3.7-.4-3.1 2l-.6 1c-2.2 3.5-7.2 4.3-9.2 7.8l-2.2 2.8-2 1.5q-4.3 3-5.3 7.8c-2 2-5.5 2.7-6 6.4 4.5-.8 5.1-5 8.7-6-.4-2.6 3.8-2 4-4.2 2.8-.9 5.2-2 5.2-5.2l1.3-1.8 5.8-6z"/></svg>
